X: 4918
T: Breach, The
R: jig
M: 6/8
K: Emajor
K: C#min
Pa3 agf|Pg3 gfe|fdB Bcd|cec fcg|
Pa3 agf|g2b gfe|Bce Bcg|Pf3 ege|
aec agf|Pg3 gfe|fdB Bcd|cec fcg|
Pa3 agf|g2b gfe|fdB Bcd|Pe3 ded||
Pc3 cBG|AeA fAe|Pg3 gfe|fdB AGF|
Gcc cBG|AeA fAe|Pg3 gfe|Pf3 dcB|
Gcc cBG|AeA fAe|Pg3 gfe|fdB AGF|
Gee eBG|Aee eBG|PB3 Pc3|Pe3 Pg3||

